X:1
T:Title
T:Tarantella part 2
T:Joseph Coulter
C:Composer
L:1/8
M:6/8
K:Eb
V:1 treble transpose=-2 nm="B♭ Clarinet" snm="B♭ Cl."
V:1
[K:F] A z z A z z | A z z A z z | d z z d z z | d3- d z2 | _A z z A z z | _A z z A z z | %6
 _d z z d z z | _d3- d z z | c z z c z z | c z z _A z z | G z z G z z | c z z B z z | %12
 _A z z G z z | _A z z B z z | _c z c B3 | _e3 z2 z | G z z G z z | G z z G z z | c z z c z z | %19
 c3- c z z | G z z G z z | G z z G z z | _e z z e z z | _e3- e z z | ^c z z E z z | G z z F z z | %26
 D z z G z z | F z z cBA | G z z E z z | E z z dcB | A z A GFE | D3 z2 z | z6 | z6 | z6 | z6 | z6 | %37
 z6 | z6 | z6 | z6 | z6 | z6 |] %43

